X: 18868
T: In Halle
R: jig
M: 6/8
K: Gmajor
e2 ed eg|B4 BA|Bd G2 Bd|dB d2 BA|Bd dg ed|
Bd e2 ed|eg B4|BA Bd G2|Bd dB de|
A4 AG|AB dg e2|ed eg B2-|B2 BA Bd|
G2 Bd dB|d2 BA Bd|dg ed Bd|e2 ed eg|
B4 BA|Bd G2 Bd|dB de A2-|A2 AG AB|
de z2 ed|eg gg ed|gd eg gg|az ag ab|
g4 fd|ed Bd ez|ed eg gg|ed gd eg|
gg bz ag|ag2< f2g|fd AB dg|ez ed eg|
gg ed gd|eg gg az|ag ab g2-|g2 fd ed|
Bd ez ed|eg gg ed|gd eg gg|bz ag ag|
f2>g2 fd|AB de z2|

